public/assets/images/icons/grey/add/visibility-checked.svg

<svg width="16" height="16" xmlns="http://www.w3.org/2000/svg" viewBox="0 0 16 16" shape-rendering="geometricPrecision" fill="#6e6e6e"><defs><mask id="a"><rect fill="#fff" width="100%" height="100%"/><path d="M14.782 1.217v-2.217h-3.564v2.217h-2.218v3.563h2.218v2.221h3.564v-2.221h2.218v-3.563z"/></mask></defs><path fill="#cb1800" d="M16 2.217h-2.218v-2.217h-1.564v2.217h-2.218v1.563h2.218v2.221h1.564v-2.221h2.218z"/><g mask="url(#a)"><path d="M8 3.181c-3.471 0-6.48 1.953-8 4.82 1.52 2.865 4.529 4.818 8 4.818 3.469 0 6.479-1.953 8-4.818-1.521-2.867-4.531-4.82-8-4.82zm-.002 9.047c-2.334 0-4.229-1.893-4.229-4.227 0-2.336 1.895-4.229 4.229-4.229 2.336 0 4.23 1.893 4.23 4.229.001 2.334-1.894 4.227-4.23 4.227zM11.792 6.774l-1.346-1.345-3.268 3.267-1.71-1.709-1.344 1.344 3.056 3.055z"/></g></svg>

<svg width="16" height="16" xmlns="http://www.w3.org/2000/svg" viewBox="0 0 16 16" shape-rendering="geometricPrecision" fill="#6e6e6e"><defs><mask id="a"><rect fill="#fff" width="100%" height="100%"/><path fill="#000" d="M14.782 1.217V-1h-3.564v2.217H9V4.78h2.218v2.221h3.564V4.78H17V1.217z"/></mask></defs><path fill="#cb1800" d="M16 2.217h-2.218V0h-1.564v2.217H10V3.78h2.218v2.221h1.564V3.78H16z"/><g mask="url(#a)"><path d="M8 3.181a9.045 9.045 0 0 0-8 4.82 9.05 9.05 0 1 0 16 0 9.049 9.049 0 0 0-8-4.82zm-.002 9.047a4.23 4.23 0 0 1-4.229-4.227 4.23 4.23 0 0 1 8.459 0 4.228 4.228 0 0 1-4.23 4.227z"/><path d="M11.792 6.774l-1.346-1.345-3.268 3.267-1.71-1.709-1.344 1.344 3.056 3.055z"/></g></svg>
